app/dist/common/images/xiamen-c-and-d.svg

<svg fill="none" height="18" width="18" xmlns="http://www.w3.org/2000/svg"><path d="m0 0h18v18h-18z" fill="#f0f3fa"/><path clip-rule="evenodd" d="m13.5 6a2.5 2.5 0 0 1 2.5 2.5v1a2.5 2.5 0 0 1 -2.5 2.5h-2.5v-6zm.147 1c.747 0 1.353.783 1.353 1.748v.504c0 .965-.606 1.748-1.353 1.748h-1.647v-4zm-9.147-1a2.5 2.5 0 0 0 -2.5 2.5v1a2.5 2.5 0 0 0 2.5 2.5h2.5v-1h-2.583c-.783 0-1.417-.783-1.417-1.748v-.504c0-.965.634-1.748 1.417-1.748h2.583v-1z" fill="#10488a" fill-rule="evenodd"/><path d="m9.761 6.274c.26.298.205.577.145.68-.243.228-.396-.126-.55-.292-.152-.166-.479-.324-.758.11-.224.349-.018.779.113.95l3.582 4.914c.229.29.069.364-.04.364h-.459c-.314.012-.604-.306-.726-.467l-2.358-3.164c-.54.482-.75.899-.75 1.264s.186.825.707.825c.416 0 .771-.156.897-.234.053-.034.17-.082.215 0 .044.082-.019.19-.055.234-.51.54-1.063.642-1.414.642-.35 0-1.24-.131-1.308-1.321-.054-.953.74-1.86 1.144-2.193l-.421-.752c-.277-.687.168-1.202.614-1.56s1.096-.372 1.421 0z" fill="#cd2e28"/></svg>

<!-- by TradingView --><svg width="18" height="18" fill="none" xmlns="http://www.w3.org/2000/svg"><path fill="#F0F3FA" d="M0 0h18v18H0z"/><path fill-rule="evenodd" clip-rule="evenodd" d="M13.5 6A2.5 2.5 0 0 1 16 8.5v1a2.5 2.5 0 0 1-2.5 2.5H11V6h2.5Zm.147 1C14.394 7 15 7.783 15 8.748v.504c0 .965-.606 1.748-1.353 1.748H12V7h1.647ZM4.5 6A2.5 2.5 0 0 0 2 8.5v1A2.5 2.5 0 0 0 4.5 12H7v-1H4.417C3.634 11 3 10.217 3 9.252v-.504C3 7.783 3.634 7 4.417 7H7V6H4.5Z" fill="#10488A"/><path d="M9.761 6.274c.26.298.205.577.145.68-.243.228-.396-.126-.55-.292-.152-.166-.479-.324-.758.11-.224.349-.018.779.113.95l3.582 4.914c.229.29.069.364-.04.364h-.459c-.314.012-.604-.306-.726-.467L8.71 9.369c-.54.482-.75.899-.75 1.264s.186.825.707.825c.416 0 .771-.156.897-.234.053-.034.17-.082.215 0 .044.082-.019.19-.055.234-.51.54-1.063.642-1.414.642-.35 0-1.24-.131-1.308-1.321-.054-.953.74-1.86 1.144-2.193l-.421-.752c-.277-.687.168-1.202.614-1.56.446-.358 1.096-.372 1.421 0Z" fill="#CD2E28"/></svg>
